X: 27079
T: Miss Johnstone's
R: slip jig
M: 9/8
K: Gmajor
|:Bcd c2 A G3|D2 G B2 A G3|f2 d c2 A G3|FDF A2 B c2 A:|
|:Bcd c2 e d3|Bcd g2 a b2 g|1 B2 d c2 e d3|a^ga f2 a =gfe:|2 b2 g a2 f g2 B|d2 B c2 A cBA||

